X: 927
T: The Kneebuckle.
B:O'Neill's 927
N:"collected by Beamish."
Z:Transcribed by Tom Keays (htkeays@mailbox.syr.edu)
Z:abc 1.6
M:6/8
R:Jig
L:1/8
K:A
e | eAA eAA | efe edB | eAA ege | dBA A2 c/d/ |
eAA eAA | efe edB | def gfe | dBA A2 :|
|| a | afa geg | fdf ecA | afa geg | dcB A2 a |
afa geg | fdf ecA | def gfe | dBA A2 :|


